X: 150
T:Scottiche des Landes 1
M:2/4
L:1/8
Q:50
C:trad
O:France
A:Landes
K:C
cc Bc|A/2G/2A/2B/2 cG|cc Bc|A/2G/2A/2B/2 G2:|
e/2d/2e/2f/2 eg|ag ec|gf/2e/2 d/2c/2d/2e/2|f/2e/2d/2f/2 ec|
c/2B/2c/2d/2 eg|ag ec|gf/2e/2 d/2c/2d/2e/2|f/2e/2d/2B/2 c2||
W:
W: From "Falaleiro" http://home.t-online.de/home/pheld/homepage.htm
